icons/svg/calendar-check.svg

<svg xmlns="http://www.w3.org/2000/svg" version="1.1" baseProfile="full" width="24" height="24" viewBox="0 0 24.00 24.00" xml:space="preserve"><path fill="#000" fill-opacity="1" stroke-linejoin="round" d="M19 19H5V8h14m0-5h-1V1h-2v2H8V1H6v2H5c-1.11 0-1.99.9-1.99 2L3 19c0 1.1.89 2 2 2h14c1.1 0 2-.9 2-2V5c0-1.1-.9-2-2-2zm-2.47 8.06L15.47 10l-4.88 4.88-2.12-2.12-1.06 1.06L10.59 17l5.94-5.94z"/></svg>

﻿<?xml version="1.0" encoding="utf-8"?>
<!DOCTYPE svg PUBLIC "-//W3C//DTD SVG 1.1//EN" "http://www.w3.org/Graphics/SVG/1.1/DTD/svg11.dtd">
<svg xmlns="http://www.w3.org/2000/svg" xmlns:xlink="http://www.w3.org/1999/xlink" version="1.1" baseProfile="full" width="24" height="24" viewBox="0 0 24.00 24.00" enable-background="new 0 0 24.00 24.00" xml:space="preserve">
	<path fill="#000000" fill-opacity="1" stroke-linejoin="round" d="M 19,19L 5,19L 5,8L 19,8M 19,3L 18,3L 18,1L 16,1L 16,3L 8,3L 8,1L 6,1L 6,3L 5,3C 3.89,3 3.01,3.9 3.01,5L 3,19C 3,20.1 3.89,21 5,21L 19,21C 20.1,21 21,20.1 21,19L 21,5C 21,3.9 20.1,3 19,3 Z M 16.53,11.06L 15.47,10L 10.59,14.88L 8.47,12.76L 7.41,13.82L 10.59,17L 16.53,11.06 Z "/>
</svg>
